X:1
T:In a Lowly Manger Sleeping
T:William Howard Doane, 1883
T:In a Lowly Manger Sleeping
T:Public Domain
C:William Howard Doane, 1883
Z:Public Domain
%%score ( 1 2 ) ( 3 4 )
L:1/8
M:4/4
K:Bb
V:1 treble 
V:2 treble 
V:3 bass 
V:4 bass 
V:1
 [DF]3 [FB] [EB]2 [EA]2 | [EF]3 [Ec] [Ec]2 [DB]2 | [Fd]3 [Ec] [DB]2 [DF]2 | [C=E]2 [Ec]2 F4 | %4
w: 1.~In a low- ly|man- ger sleep- ing,|Calm and still a|Babe we see,|
w: 2.~Ho- ly an- gels|sing His wel- come|In the realms of|glo- ry bright,|
w: 3.~Bless- èd Sav- ior,|dear Re- deem- er,|King of Ju- dah,|Prince of Peace,|
 [DF]3 [D^F] [EG]2 [D=F]2 | [FA]3 [FB] [Fc]2 [FB]2 | [FA]2 [EG]2 [DF]2 [=EB]2 | [FB]2 (Ac) [FB]4 |] %8
w: the Ho- ly Child|of pro- mise, Light|of all the world|is He. * *|
w: the morn- ing stars|a- round Him Fall|in soft and ten-|der light. * *|
w: of Ag- es, Star|of na- tions, Thy|do- min- ion ne’er|shall cease. * *|
V:2
 x8 | x8 | x8 | x4 F4 | x8 | x8 | x8 | x2 F2 x4 |] %8
w: |||’Tis|||||
w: |||While|||||
w: |||Rock|||||
V:3
 [B,,B,]3 [D,B,] [F,C]2 [F,C]2 | [F,A,]3 [F,A,] [B,,F,]2 [B,,F,]2 | %2
 [B,,B,]3 [B,,F,] [B,,F,]2 [B,,B,]2 | [C,B,]2 [C,B,]2 [F,A,]4 | %4
 [B,,B,]3 [B,,B,] [B,,B,]2 [B,,B,]2 | [F,C]3 [F,D] [B,,E]2 [B,,D]2 | %6
 [D,B,]2 [E,B,]2 [F,B,]2 [_G,_D]2 | [F,D]2 (CE) [B,,D]4 |] %8
V:4
 x8 | x8 | x8 | x8 | x8 | x8 | x8 | x2 F,2 x4 |] %8

